X:36
L:1/8
M:2/4
K:Amix
 e | A2 A>B | cB ce | A2 Af | ec B2 | A2 A>B | cB ce | fa ea | c2 BB :: ce ef/g/ | ae fe | ce ef | 
 ga cB | ce ef/g/ | ae fe | fa ea | c2 BB :|

